X: 9
T: Ne vous hastez pas en malheure
N: Derived from Com3027-Ne_vous_hastez_pas_en_malheure.krn
C: Loyset Comp\`ere
%%abc-version 2.0
%%abcx-abcm2ps-target-version 5.9.1 (29 Sep 2008)
%%abc-creator hum2abc beta
%%abcx-conversion-date 2019/02/16 20:28:09
%%abc-edited-by Jesse Rodin
%%abc-edited-by Megan K. Eagen 2013/12/18
%%abcx-initial-encoding-date 2013/12/18/
%%humdrum-veritas 894193804
%%humdrum-veritas-data 1539193291
%%linebreak <none>
%%barnumbers 0
L: 1/4
M: 2/1
Q: 1/2=120
V: 1 clef=treble
V: 2 clef=treble-8
V: 3 clef=treble-8
K: C
[V:1] z8 | 
[V:2] G4G4 | 
[V:3] d4d4 | 
[V:1] G4G4 | 
[V:2] G4c4- | 
[V:3] d4e4 | 
[V:1] G4c4- | 
[V:2] c4c4 | 
[V:3] e2e3dcB | 
[V:1] c4c4 | 
[V:2] e4e4 | 
[V:3] A4c4 | 
[V:1] B4A4 | 
[V:2] d8 | 
[V:3] G2D2F4 | 
[V:1] G3ABcB2- | 
[V:2] e8 | 
[V:3] E2c3cG2 | 
[V:1] BAA4^G2 | 
[V:2] c2BAB4 | 
[V:3] A4E4 | 
[V:1] A8 | 
[V:2] A3Bc2d2- | 
[V:3] z2A3GFE | 
[V:1] z4E4- | 
[V:2] d2cBA2G2- | 
[V:3] D4C4 | 
[V:1] E2DCD4 | 
[V:2] G2c4B2 | 
[V:3] z2C2F2G2 | 
[V:1] C4G4 | 
[V:2] c8 | 
[V:3] A2GFE2e2 | 
[V:1] A4B4 | 
[V:2] z4G4 | 
[V:3] c2d4cB | 
[V:1] c4d4 | 
[V:2] A4B4 | 
[V:3] A2c2G4 | 
[V:1] c2BAG3A | 
[V:2] c8 | 
[V:3] A2GFE2C2 | 
[V:1] B2c4B2 | 
[V:2] d8 | 
[V:3] G8 | 
[V:1] c4cBAG | 
[V:2] c8 | 
[V:3] A3Bc2F2- | 
[V:1] A2GFE4- | 
[V:2] z4c4 | 
[V:3] F2EDC4 | 
[V:1] E4z4 | 
[V:2] cBAGA2GF | 
[V:3] z2c4d2 | 
[V:1] G8- | 
[V:2] E8 | 
[V:3] e2dcB2c2- | 
[V:1] G4F4 | 
[V:2] z2G2A3B | 
[V:3] c2B2c2A2- | 
[V:1] E2F3EDC | 
[V:2] c2d3cBA | 
[V:3] AGFED4 | 
[V:1] G2FED4 | 
[V:2] G2c4B2 | 
[V:3] E2F2G4 | 
[V:1] C8 | 
[V:2] c8- | 
[V:3] C2F3GA2- | 
[V:1] z4G4 | 
[V:2] c8 | 
[V:3] A2GFE4 | 
[V:1] A4A4 | 
[V:2] z4c4 | 
[V:3] D2C2F4 | 
[V:1] G2ABc4 | 
[V:2] e4e4 | 
[V:3] E4C4 | 
[V:1] B2A3G/F/E2 | 
[V:2] d6c2 | 
[V:3] G2DEFGA2 | 
[V:1] D2G4^F2 | 
[V:2] B2AGA4 | 
[V:3] D2E2D4 | 
[V:1] G8- | 
[V:2] G8 | 
[V:3] z4G4 | 
[V:1] G8 | 
[V:2] z4G4 | 
[V:3] G4E4 | 
[V:1] z4G4 | 
[V:2] G4E4 | 
[V:3] C4z2G2- | 
[V:1] G4E4 | 
[V:2] C4z2G2 | 
[V:3] G2c4B2 | 
[V:1] C4z2G2 | 
[V:2] A2c4B2 | 
[V:3] A2GFE4 | 
[V:1] A2c4B2 | 
[V:2] A2GFE4 | 
[V:3] F4G3F | 
[V:1] A2GFE4- | 
[V:2] F4G4 | 
[V:3] D4C4 | 
[V:1] E4F4 | 
[V:2] E2C2D4 | 
[V:3] z2c2A2d2 | 
[V:1] G4E2C2 | 
[V:2] C2G2AGc2- | 
[V:3] e3dcBA2 | 
[V:1] D4C4 | 
[V:2] c2B2c4- | 
[V:3] G4z2C2- | 
[V:1] z2C3DEF | 
[V:2] c4z2G2- | 
[V:3] CDEFE2C2 | 
[V:1] E2D3EFG | 
[V:2] GABcB2A2- | 
[V:3] G3AB2c2 | 
[V:1] F2E3FGA | 
[V:2] ABcdc2B2- | 
[V:3] z2C3DEF | 
[V:1] G2F3GA_B | 
[V:2] Bcded2c2- | 
[V:3] E2D3EFG | 
[V:1] A2G3ABc | 
[V:2] cdefe2d2- | 
[V:3] F2E3FGA | 
[V:1] B2A3Bcd | 
[V:2] defgf2e2- | 
[V:3] G2F3GA_B | 
[V:1] c2B3cde | 
[V:2] efgag2f2- | 
[V:3] A2G3ABc | 
[V:1] d2c4B2 | 
[V:2] f2e2d4 | 
[V:3] dDE2F2G2 | 
[V:1] c8 |]  
[V:2] c8 |]  
[V:3] C8 |]  



